public/img/ape.svg

<svg enable-background="new 0 0 333 416.2" viewBox="0 0 333 416.2" xmlns="http://www.w3.org/2000/svg"><path clip-rule="evenodd" d="m223 186c20-24 8-71-25-71-15 0-28 11-33 26-6-9-16-15-26-15-33 0-43 47-25 70 31-19 74-23 109-10zm-12-32c4 0 6 4 6 8 0 5-2 9-6 9-3 0-6-4-6-9 0-4 3-8 6-8zm-61 0c4 0 7 3 7 8 0 4-3 8-7 8-3 0-6-4-6-8 0-5 3-8 6-8zm30 35c6 3 9 7 9 13s-5 12-12 13c-1 18-1 36 1 54 13 0 26 5 34-8 2-4 8 0 5 3-11 17-24 10-40 11-15 2-34 11-46-1-2-3 2-7 5-4 8 8 26 1 36 0-2-18-2-36-1-54-10 0-18-6-18-14 0-5 2-8 6-11-33 5-80 33-67 73 10 34 56 46 88 44 31-2 75-20 81-54 8-44-47-65-81-65zm84 9c8-6 10-15 6-22-4-6-13-8-20-5-2 7-6 13-11 18 2 11 16 15 25 9zm6 31c18 53-45 87-90 90-50 3-94-23-100-58-33 11-68-14-68-50 0-37 38-62 71-48-9-47 44-75 85-75 38 0 71 20 82 47 34-23 79 2 79 43 0 32-28 56-59 51zm-183-5c4-7 10-14 17-20-3-6-9-10-16-10-10 0-17 7-17 15s7 15 16 15z" fill-rule="evenodd"/></svg>

<?xml version="1.0" encoding="utf-8"?>
<!-- Generator: Adobe Illustrator 23.0.6, SVG Export Plug-In . SVG Version: 6.00 Build 0)  -->
<svg version="1.1" id="Layer_1" xmlns="http://www.w3.org/2000/svg" xmlns:xlink="http://www.w3.org/1999/xlink" x="0px" y="0px"
	 viewBox="0 0 333 416.2" style="enable-background:new 0 0 333 416.2;" xml:space="preserve">
<style type="text/css">
	.st0{fill-rule:evenodd;clip-rule:evenodd;}
</style>
<g>
	<path class="st0" d="M223,186c20-24,8-71-25-71c-15,0-28,11-33,26c-6-9-16-15-26-15c-33,0-43,47-25,70C145,177,188,173,223,186z
		 M211,154c4,0,6,4,6,8c0,5-2,9-6,9c-3,0-6-4-6-9C205,158,208,154,211,154z M150,154c4,0,7,3,7,8c0,4-3,8-7,8c-3,0-6-4-6-8
		C144,157,147,154,150,154z M180,189c6,3,9,7,9,13s-5,12-12,13c-1,18-1,36,1,54c13,0,26,5,34-8c2-4,8,0,5,3c-11,17-24,10-40,11
		c-15,2-34,11-46-1c-2-3,2-7,5-4c8,8,26,1,36,0c-2-18-2-36-1-54c-10,0-18-6-18-14c0-5,2-8,6-11c-33,5-80,33-67,73c10,34,56,46,88,44
		c31-2,75-20,81-54C269,210,214,189,180,189z M264,198c8-6,10-15,6-22c-4-6-13-8-20-5c-2,7-6,13-11,18C241,200,255,204,264,198z
		 M270,229c18,53-45,87-90,90c-50,3-94-23-100-58c-33,11-68-14-68-50c0-37,38-62,71-48c-9-47,44-75,85-75c38,0,71,20,82,47
		c34-23,79,2,79,43C329,210,301,234,270,229z M87,224c4-7,10-14,17-20c-3-6-9-10-16-10c-10,0-17,7-17,15S78,224,87,224z"/>
</g>
</svg>
